X: 206
%
T: The Glen Where My Love Is
C:Pipe tune
O:Scotland
B:Keith Norman MacDonald : "The Skye collection of the best reels & strathspeys extant" : 1887
Z:Ralph Palmer
R:Reel
M:C
L:1/8
K:A
a | e2 u(d<e) f2 (d<f) | e2 d<e A<A cA | e2 (d<e) f2 (d<f) | d2 =Gd BG B :|
e>dec ABcd | eaec A<A c2 | [1 e>dec A<AcA | BcdB =G<G B2 :|
[2 defd cdec | BcdB =G>G B2 || A<A cA cAcA | A<A cA cA c2 |
[1 A<A cA cAcA | B=GGG BG B2 :| [2 defd cdeB | BcdB =G<G B2 ||
eaga eAcA | eaga eA c2 | eaga eAcA | B=GGG BG B2 |
eaga eAcA | eaga cA g2 | afge fdec | d=GGG BG B2 |]
W:From Ross's Collection


